src/img/linkedin-icon2.svg

<?xml version="1.0" encoding="UTF-8"?>
<svg xmlns="http://www.w3.org/2000/svg" xmlns:xlink="http://www.w3.org/1999/xlink" viewBox="0 0 16 16" version="1.1" width="64px" height="64px" style="fill:#ffffff">
<g id="surface1">
<path style=" " d="M 2.757813 1 C 1.792969 1 1 1.792969 1 2.757813 L 1 12.246094 C 1 13.207031 1.792969 14 2.757813 14 L 12.246094 14 C 13.207031 14 14 13.207031 14 12.246094 L 14 2.757813 C 14 1.792969 13.207031 1 12.246094 1 Z M 2.757813 2 L 12.246094 2 C 12.667969 2 13 2.332031 13 2.757813 L 13 12.246094 C 13 12.667969 12.667969 13 12.246094 13 L 2.757813 13 C 2.332031 13 2 12.667969 2 12.246094 L 2 2.757813 C 2 2.332031 2.332031 2 2.757813 2 Z M 4 3 C 3.449219 3 3 3.449219 3 4 C 3 4.550781 3.449219 5 4 5 C 4.550781 5 5 4.550781 5 4 C 5 3.449219 4.550781 3 4 3 Z M 3 6 L 3 12 L 5 12 L 5 6 Z M 6 6 L 6 12 L 8 12 L 8 9.320313 C 8 8.488281 8.078125 7.742188 9.078125 7.742188 C 10.0625 7.742188 10 8.636719 10 9.375 L 10 12 L 12 12 L 12 9.039063 C 12 7.320313 11.640625 6 9.691406 6 C 8.753906 6 8.28125 6.375 8.023438 6.875 L 8 6.875 L 8 6 Z "/>
</g>
</svg>

<svg xmlns="http://www.w3.org/2000/svg" viewBox="0 0 16 16" width="64" height="64" fill="#000"><path d="M2.758 1C1.793 1 1 1.793 1 2.758v9.488C1 13.207 1.793 14 2.758 14h9.488c.961 0 1.754-.793 1.754-1.754V2.758C14 1.793 13.207 1 12.246 1zm0 1h9.488c.422 0 .754.332.754.758v9.488a.747.747 0 0 1-.754.754H2.758A.748.748 0 0 1 2 12.246V2.758C2 2.332 2.332 2 2.758 2zM4 3c-.55 0-1 .45-1 1s.45 1 1 1 1-.45 1-1-.45-1-1-1zM3 6v6h2V6zm3 0v6h2V9.32c0-.832.078-1.578 1.078-1.578.985 0 .922.895.922 1.633V12h2V9.04C12 7.32 11.64 6 9.691 6c-.937 0-1.41.375-1.668.875H8V6z"/></svg>
